cssgg/file-remove.svg

<svg
  width="24"
  height="24"
  viewBox="0 0 24 24"
  fill="none"
  xmlns="http://www.w3.org/2000/svg"
>
  <path d="M9 15H15V13H9V15Z" fill="currentColor" />
  <path
    fill-rule="evenodd"
    clip-rule="evenodd"
    d="M6 2C4.34315 2 3 3.34315 3 5V19C3 20.6569 4.34315 22 6 22H18C19.6569 22 21 20.6569 21 19V9C21 5.13401 17.866 2 14 2H6ZM6 4H13V9H19V19C19 19.5523 18.5523 20 18 20H6C5.44772 20 5 19.5523 5 19V5C5 4.44772 5.44772 4 6 4ZM15 4.10002C16.6113 4.4271 17.9413 5.52906 18.584 7H15V4.10002Z"
    fill="currentColor"
  />
</svg>

<svg viewBox="0 0 24 24" xmlns="http://www.w3.org/2000/svg"><g><path d="M9 15h6v-2H9v2Z"/><path fill-rule="evenodd" d="M6 2C4.34 2 3 3.34 3 5v14c0 1.65 1.34 3 3 3h12c1.65 0 3-1.35 3-3V9c0-3.87-3.14-7-7-7H6Zm0 2h7v5h6v10c0 .55-.45 1-1 1H6c-.56 0-1-.45-1-1V5c0-.56.44-1 1-1Zm9 .1c1.61.32 2.94 1.42 3.58 2.89h-3.59v-2.9Z"/></g></svg>
